X: 175
T: la Nouvelle Espagnolette
B: 204 Favourite Country Dances
N: Published by Straight & Skillern, London ca.1775
F: http://imslp.org/wiki/204_Favourite_Country_Dances_(Various) p.88 #175
Z: 2014 John Chambers <jc:trillian.mit.edu>
M: C|
L: 1/8
K: G
% - - - - - - - - - - - - - - - - - - - - - - - - -
|:\
G2G2 A2Bc | B2A2 G4 | G2FE D2G2 | c2B2 A4 |\
G2G2 A2Bc | B2A2 G4 | G2FE D2c2 | B2A2 HG4 :|
d2d2 g2g2 | agfe a4 | a2gf e2d2 | ^cdec A4 |\
d2d2 e2e2 | f2ed e4 | a2gf e2fg | f2e2 "^D.C."d4 |]
% - - - - - - - - - - - - - - - - - - - - - - - - -
%%begintext align
%% The 1st Cu. cast off one Cu. and hands round four
%% with the 3d Cu .| Cast up and hands round 4 with the
%% 2d Cu .|. Cross over one Cu. and turn your Partner
%% :|. foot it all four and Right & Left at top :|:
%%endtext

%%sep 1 1 500
%%sep 1 1 500
